!!!COM: Mozart, Wolfgang Amadeus
!!!CDT: 1756/01/27/-1791/12/05/
!!!CNT: German
!!!OTL: Piano Sonata No. 12 in F major
!!!SCT1: K<sup>1</sup> 332
!!!SCT2: K<sup>6</sup> 300k
!!!OMV: Mvmt. 3
!!!OMD: Allegro assai
!!!ODT: ~1783///
**kern	**kern	**dynam
*staff2	*staff1	*staff1/2
*>[A,A,B]	*>[A,A,B]	*>[A,A,B]
*>norep[A,B]	*>norep[A,B]	*>norep[A,B]
*>A	*>A	*>A
*clefF4	*clefG2	*clefG2
*k[b-]	*k[b-]	*k[b-]
*F:	*F:	*F:
*M6/8	*M6/8	*M6/8
*MM144	*MM144	*MM144
=1-	=1-	=1-
4FF 4AA 4C 4F	16r	.
!	!LO:TX:b:i:t=legato	!
.	16cccLL	f
.	16bbn	.
.	16ccc	.
8r	16fff	.
.	16cccJJ	.
4r	16bb-LL	.
.	16aa	.
.	16gg#	.
.	16aa	.
8r	16ccc	.
.	16aaJJ	.
=2	=2	=2
2.r	16ggnLL	.
.	16ff	.
.	16ee	.
.	16ff	.
.	16aa	.
.	16ffJJ	.
.	16ddLL	.
.	16cc	.
.	16bn	.
.	16cc	.
.	16ff	.
.	16ccJJ	.
=3	=3	=3
4r	16b-XLL<	.
.	16a	.
.	16g#	.
.	16a	.
8r	16cc	.
.	16aJJ	.
8A'L	16fLL	.
.	16ff	.
8G'	16e	.
.	16ff	.
8A'J	16f	.
.	16ffJJ	.
=4	=4	=4
8B-'L	16gnLL	.
.	16ff	.
8A'	16f	.
.	16ff	.
8B-'J	16g	.
.	16ffJJ	.
8c'L	16aLL	.
.	16ff	.
8B-'	16g	.
.	16ff	.
8c'J	16a	.
.	16ffJJ	.
=5	=5	=5
(4d-	16b-LL	.
.	16ff	.
.	16b-	.
.	16ff	.
8c)	16a	.
.	16ffJJ	.
(4d-	16b-LL	.
.	16ff	.
.	16b-	.
.	16ff	.
8c)	16a	.
.	16ffJJ	.
=6	=6	=6
8BnL	16a-LL	.
.	16ff	.
8B	16a-	.
.	16ff	.
8BJ	16a-	.
.	16ffJJ	.
8c	8g 8ee	.
8r	8r	.
8r	8r	.
=7	=7	=7
4FF 4AA 4C 4F	16r	.
.	16cccLL	.
.	16bbn	.
.	16ccc	.
8r	16fff	.
.	16cccJJ	.
4r	16bb-LL	.
.	16aa	.
.	16gg#	.
.	16aa	.
8r	16ccc	.
.	16aaJJ	.
=8	=8	=8
2.r	16ggnLL	.
.	16ff	.
.	16ee	.
.	16ff	.
.	16aa	.
.	16ffJJ	.
.	16ddLL	.
.	16cc	.
.	16bn	.
.	16cc	.
.	16ff	.
.	16ccJJ	.
=9	=9	=9
4r	16b-XLL<	.
.	16a	.
.	16g#	.
.	16a	.
8r	16cc	.
.	16aJJ	.
8A'L	16fLL	.
.	16ff	.
8G'	16e	.
.	16ff	.
8A'J	16f	.
.	16ffJJ	.
=10	=10	=10
8B-'L	16gnLL	.
.	16ff	.
8A'	16f	.
.	16ff	.
8B-'J	16g	.
.	16ffJJ	.
8c'L	16aLL	.
.	16ff	.
8B-'	16g	.
.	16ff	.
8c'J	16a	.
.	16ffJJ	.
=11	=11	=11
(4d-	16b-LL	.
.	16ff	.
.	16b-	.
.	16ff	.
8c)	16a	.
.	16ffJJ	.
(4d-	16b-LL	.
.	16ff	.
.	16b-	.
.	16ff	.
8c)	16a	.
.	16ffJJ	.
=12	=12	=12
8Bn	(16a-LL	.
.	16ffJJ)	.
8r	8r	.
8r	8r	.
8B-	(16gLL	.
.	16eeJJ)	.
8r	8r	.
8r	8r	.
=13	=13	=13
8A	(16f#LL	.
.	16ee-JJ)	.
8r	8r	.
8r	8r	.
16BB-LL	8r	.
16B-JJ	.	.
8r	(>16dLL	.
.	16g	.
8r	16b-	.
.	16ddJJ	.
=14	=14	=14
4.C 4.G (4.B-	16ccLL	.
.	16b-	.
.	16a	.
.	16g	.
.	16fn	.
.	16eJJ	.
8F 8A)	8fL)	.
8r	8c	p
8r	8cJ	.
=15	=15	=15
!	!LO:TX:b:i:t=dolce	!
.	(>32eqq/	.
8CL	[4.b-)	.
8B- 8c	.	.
8B- 8cJ	.	.
8B- 8cL	8b-L]	.
8B- 8c	8a'	.
8B- 8cJ	8g'J	.
=16	=16	=16
.	8gqq/	.
8FL	4.f	.
8A 8c	.	.
8A 8cJ	.	.
8A 8cL	4.f	.
8A 8c	.	.
8A 8cJ	.	.
=17	=17	=17
.	(>32eqq/	.
8CL	[4.b-)	.
8G 8c	.	.
8G 8cJ	.	.
8G 8cL	8b-L]	.
8G 8c	8a'	.
8G 8cJ	8g'J	.
=18	=18	=18
8FL	(4.bn	.
8A 8c	.	.
8A 8cJ	.	.
8A 8cL	8cc)	.
8A 8c	8r	.
8A 8cJ	8r	.
=19	=19	=19
.	(>32eqq	.
8CL	[4.b-)	.
8B- 8c	.	.
8B- 8cJ	.	.
8B- 8cL	8b-L]	.
8B- 8c	8a'	.
8cJ	8g'J	.
=20	=20	=20
8FL	4f	.
8A 8c	.	.
8A 8cJ	[8a	sfp
8A 8cL	4a]	.
8A 8c	.	.
8A 8cJ	[8cc	sfp
=21	=21	=21
8CL	4cc]	.
8G 8c	.	.
8G 8cJ	[8b-	sfp
8B- 8cL	4b-]	.
8B- 8c	.	.
8B- 8cJ	8g	.
=22	=22	=22
8F 8A 8c	8f	.
8r	8r	.
8AA'	8A'	f
8BB-'L<	8B-'L	.
8G'	8g'	.
8BBn'J	8Bn'J	.
=23	=23	=23
8C'L	8c'L	.
8A'	8a'	.
8C#'J	8c#'J	.
8D'L	8d'L	.
8B-X'	8b-X'	.
8E'J	8e'J	.
=24	=24	=24
4r	([4.bb-	.
8r	.	.
*clefG2	*	*
(4.B- 4.c 4.e 4.g	8bb-L]	.
.	16aaL	.
.	16gg	.
.	16ff	.
.	16eeJJ	.
=25	=25	=25
8A) 8c 8f	8ff'L)	.
8r	8gg'	.
8r	8aa'J	.
(4c	(4a/ 4cc/	p
8c#)	8g) 8b-	.
=26	=26	=26
[4.d	(4.g 4.b-	.
8d]	8f) 8a	.
8r	8r	.
8r	8r	.
*clefF4	*	*
=27	=27	=27
8r	8r	.
8r	8r	.
8AA'	8A'	f
8BB-'L	8B-'L	.
8G'	8g'	.
8BBn'J	8Bn'J	.
=28	=28	=28
8C'L	8c'L	.
8A'	8a'	.
8C#'J	8c#'J	.
8D'L	8d'L	.
8B-X'	8b-X'	.
8E'J	8e'J	.
=29	=29	=29
4r	([4.bb-	.
8r	.	.
*clefG2	*	*
(4.B- 4.c 4.e 4.g	8bb-L]	.
.	16aaL	.
.	16gg	.
.	16ff	.
.	16eeJJ	.
=30	=30	=30
8A) 8c 8f	32ffLLL	.
.	32ggJ	.
.	16aaJJ)	.
8r	8r	.
8r	8r	.
8B- 8d 8f	(32ddLLL	.
.	32eeJ	.
.	16ffJJ)	.
8r	8r	.
8r	8r	.
*clefF4	*	*
=31	=31	=31
*^	*	*
(4.A	2.C	4.f	p
.	.	(32aqq	.
4.B-)	.	(4e 4g)	.
.	.	8f)	.
=32	=32	=32	=32
*	*	*^	*
8FL	(4.F	(4f	4.f	.
8A	.	.	.	.
8cJ	.	8a	.	.
8FL	4.F	8ccL	4.e	.
8G	.	8b-	.	.
8B-J)	.	8gJ)	.	.
=33	=33	=33	=33	=33
8FL	(4.F	(8fL	4.f	.
8A	.	8c	.	.
8cJ	.	8aJ	.	.
8FL	4.F	8ccL	4.e	.
8G	.	8b-	.	.
8B-J)	.	8gJ)	.	.
*	*	*v	*v	*
=34	=34	=34	=34
8FL	(4.F	(8fL	pp
8A	.	8c	.
8cJ	.	8aJ	.
8FL	4.F	8fL	.
8A	.	8c	.
8cJ)	.	8aJ)	.
*v	*v	*	*
=35	=35	=35
[4.FF [4.F	(4.B- 4.g	.
8FF] 8F]	8A) 8f	.
8r	8r	.
8r	8r	.
=36	=36	=36
2.r	4.a 4.aa	f
.	4.a 4.gg	.
=37	=37	=37
4.AA 4.A	4.a 4.ff	.
4.GG 4.G	4.a 4.ee	.
=38	=38	=38
4.FF 4.F	4.a 4.dd	.
4.EE 4.E	4.g 4.a 4.cc#	.
=39	=39	=39
8DL	(16ddLL	.
.	16a	.
8F	16f	.
.	16a	.
8AJ	16dd	.
.	16aJJ	.
8C#L	16eeLL	.
.	16a	.
8E	16g	.
.	16a	.
8AJ	16ee	.
.	16aJJ	.
=40	=40	=40
8DL	16ffLL	.
.	16dd	.
8F	16a	.
.	16dd	.
8AJ	16ff	.
.	16ddJJ	.
8CnL	16ff#LL	.
.	16dd	.
8F#	16a	.
.	16dd	.
8AJ	16ff#	.
.	16ddJJ)	.
=41	=41	=41
4BBn	(4gg	.
8r	16aaLL	.
.	16ggJJ)	.
4r	(4ffn	.
8r	16ggLL	.
.	16ffJJ)	.
*clefG2	*	*
=42	=42	=42
4.g	(4ee	.
.	16ffLL	.
.	16eeJJ)	.
4.f 4.g	(4dd	.
.	16eeLL	.
.	16ddJJ)	.
=43	=43	=43
4.e 4.g	(4cc	.
.	16ddLL	.
.	16ccJJ)	.
4.d 4.f 4.g	(4bn	.
.	16ccLL	.
.	16bJJ)	.
=44	=44	=44
8cL	(16ddLL	.
.	16cc	.
8e	16bn	.
.	16cc	.
8gJ	16b	.
.	16ccJJ	.
8BnL	16eeLL	.
.	16dd	.
8f	16cc#	.
.	16dd	.
8gJ	16cc#	.
.	16ddJJ	.
=45	=45	=45
8c 8e 8g	16eeLL	.
.	16dd	.
8r	16ccn	.
.	16dd	.
8r	16ee	.
.	16ffJJ	.
4r	16ggLL	.
.	16ff	.
.	16ee	.
.	16ff	.
8r	16gg	.
.	16gg#JJ)	.
*clefF4	*	*
=46	=46	=46
8F'L	16aaLL	.
.	16bb-	.
8f'J	16aa	.
.	16ggn	.
8r	16ff	.
.	16eeJJ	.
8BBn'L	16ddLL	.
.	16ccc#	.
8Bn'J	16ddd	.
.	16cccn	.
8r	16bbn	.
.	16aaJJ	.
=47	=47	=47
8E'L	16ggLL	.
.	16aa	.
8e'J	16gg	.
.	16ff	.
8r	16ee	.
.	16ddJJ	.
8AA'L	16ccLL	.
.	16bbn	.
8A'J	16ccc	.
.	16bb	.
8r	16aa	.
.	16ggJJ	.
=48	=48	=48
8D'	16ffLL	.
.	16ccc#	.
8r	16ddd	.
.	16bbn	.
8Bn'	16gg	.
.	16ffJJ	.
8c'	16eeLL	.
.	16bb	.
8r	16cccn	.
.	16gg	.
8C'	16ff	.
.	16eeJJ	.
=49	=49	=49
8G'	16ddLL	.
.	16ee	.
8r	16dd	.
.	16cc	.
8r	16bn	.
.	16aJJ	.
*clefG2	*	*
16r	16g	.
(16aLL	16r	.
16g	8r	.
16f	.	.
16e	8r	.
16dJJ)	.	.
=50	=50	=50
8cL	[4.ee-	p
8e-	.	.
8gJ	.	.
8cL	8ee-L]	.
8e-	8dd'	.
8gJ	8cc'J	.
=51	=51	=51
8BnL	(4ff#	.
8d	.	.
8gJ	8gg)	.
8BL	4dd	.
8d	.	.
8gJ	8r	.
=52	=52	=52
8BnL	[4.aa-	.
8d	.	.
8fJ	.	.
8BL	8aa-L]	.
8d	8gg'	.
8gJ	8ffn'J	.
=53	=53	=53
8cL	(4ee-	.
8e-	.	.
.	16ddqLL	.
.	16ee-qJJ	.
8gJ	8ff	.
8cL	4gg)	.
8e-	.	.
8gJ	8r	.
=54	=54	=54
8e-L	(4.ccc	.
8g	.	.
8ccJ	.	.
8dL	4bb-	.
8f	.	.
8b-J	8ccc	.
=55	=55	=55
8cL	4bb-	.
8e-	.	.
8a-J	8aa-)	.
8B-L	4.gg	.
8d	.	.
8gJ	.	.
=56	=56	=56
8A-L	(4ff	.
8c	.	.
8fJ	8ee-	.
8A-L	4dd	.
8c	.	.
8f#J	8cc	.
=57	=57	=57
8GL	4.ee-	.
8c	.	.
8gJ	.	.
8GL	8dd)	.
8Bn	8r	.
8gJ	8r	.
=58	=58	=58
8cL	[4.ee-	.
8e-	.	.
8gJ	.	.
8cL	8ee-L]	.
8e-	8dd'	.
8gJ	8cc'J	.
=59	=59	=59
8BnL	(4ff#	.
8d	.	.
8gJ	8gg)	.
8BL	4dd	.
8d	.	.
8gJ	8r	.
=60	=60	=60
8BnL	[4.aa-	.
8d	.	.
8fJ	.	.
8BL	8aa-L]	.
8d	8gg'	.
8gJ	8ffn'J	.
=61	=61	=61
8B-L	(4een	.
8d-	.	.
8gJ	16ffLL	.
.	16ggJJ	.
8AnL	4ff)	.
8c	.	.
8fJ	8r	.
=62	=62	=62
8A-L	([4.eee-	.
8c	.	.
8f#J	.	.
8GL	8eee-L]	.
8c	8ddd	.
8gJ	8cccJ	.
*clefF4	*	*
=63	=63	=63
8FnL	4.bbn	.
8A-	.	.
8dJ	.	.
8E-L	4ccc)	.
8c	.	.
8FJ	8aa-	.
=64	=64	=64
*	*^	*
8GL	4.r	4.cc	p
8c	.	.	.
8e-J	.	.	.
*	*v	*v	*
.	16ee-q	.
*	*^	*
8GL	4.dd	4.bn	.
8d	.	.	.
8fJ	.	.	.
*	*v	*v	*
=65	=65	=65
4c 4en	(16ccLL	f
.	16gg	.
.	16ff#	.
.	16gg	.
8r	16aan	.
.	16ggJJ	.
8d'L	16ffnLL	.
.	16gg	.
8Bn'	16ff	.
.	16gg	.
8G'J	16ff	.
.	16ggJJ	.
=66	=66	=66
4c	16eenLL	.
.	16gg	.
.	16ff#	.
.	16gg	.
8r	16ccc	.
.	16ggJJ	.
8d'L	16ffnLL	.
.	16gg	.
8Bn'	16ff	.
.	16gg	.
8G'J	16ff	.
.	16ggJJ	.
=67	=67	=67
4c	16eeLL	.
.	16gg	.
.	16ff#	.
.	16gg	.
8r	16ccc	.
.	16ggJJ	.
8d'L	16ffnLL	.
.	16gg	.
8Bn'	16ff	.
.	16gg	.
8G'J	16ff	.
.	16ggJJ	.
=68	=68	=68
4c	16eeLL	.
.	16gg	.
.	16ccc	.
.	16ee	.
8r	16dd	.
.	16bbnJJ	.
4r	16ccLL	.
.	16aa	.
.	16bn	.
.	16gg	.
8r	16a	.
.	16ffJJ	.
=69	=69	=69
2.r	16gLL	.
.	16ee	.
.	16f	.
.	16dd	.
.	16e	.
.	16ccJJ	.
.	16dLL	.
.	16bn	.
.	16c	.
.	16a	.
.	16Bn	.
.	16gJJ)	.
=70	=70	=70
8r	4.A 4.f#	.
(8AAL	.	.
8CJ	.	.
8E-L	4.A- 4.fn	.
8D	.	.
[8CJ	.	.
=71	=71	=71
8CL]	4.a- 4.ff	.
8BBn	.	.
8DJ	.	.
8A-L	4.d 4.bn	.
8G	.	.
8FJ	.	.
=72	=72	=72
8En)	8r	.
8r	8gg'L	p
8r	8gg'J	.
8F	8r	.
8r	8aan'L	.
8r	8aa'J	.
=73	=73	=73
*^	*^	*
(4.e	2.G	4.cc	4.g	.
*	*	*v	*v	*
.	.	16eeq	.
*	*	*^	*
4.f)	.	4.dd	4.bn	.
*v	*v	*	*	*
*	*v	*v	*
=74	=74	=74
4c 4e	(16ccLL	f
.	16gg	.
.	16ff#	.
.	16gg	.
8r	16aa	.
.	16ggJJ	.
8d'L	16ffnLL	.
.	16gg	.
8Bn'	16ff	.
.	16gg	.
8G'J	16ff	.
.	16ggJJ	.
=75	=75	=75
4c	16eeLL	.
.	16gg	.
.	16ff#	.
.	16gg	.
8r	16ccc	.
.	16ggJJ	.
8d'L	16ffnLL	.
.	16gg	.
8Bn'	16ff	.
.	16gg	.
8G'J	16ff	.
.	16ggJJ	.
=76	=76	=76
4c	16eeLL	.
.	16gg	.
.	16ff#	.
.	16gg	.
8r	16ccc	.
.	16ggJJ	.
8dL	16ffnLL	.
.	16gg	.
8Bn'	16ff	.
.	16gg	.
8G'J	16ff	.
.	16ggJJ	.
=77	=77	=77
4c	16eeLL	.
.	16gg	.
.	16ccc	.
.	16ee	.
8r	16dd	.
.	16bbnJJ	.
4r	16ccLL	.
.	16aa	.
.	16bn	.
.	16gg	.
8r	16a	.
.	16ffJJ	.
=78	=78	=78
2.r	16gLL	.
.	16ee	.
.	16f	.
.	16dd	.
.	16e	.
.	16ccJJ	.
.	16dLL	.
.	16bn	.
.	16c	.
.	16a	.
.	16Bn	.
.	16gJJ)	.
=79	=79	=79
8r	4.A 4.f#	.
(8AAL	.	.
8CJ	.	.
8E-L	4.A- 4.fn	.
8D	.	.
[8CJ	.	.
=80	=80	=80
8CL]	4.a- 4.ff	.
8BBn	.	.
8DJ	.	.
8A-L	4.d 4.bn	.
8G	.	.
8FJ	.	.
=81	=81	=81
8En)	8r	.
8r	8gg'L	p
8r	8gg'J	.
8F	8r	.
8r	8aan'L	.
8r	8aa'J	.
=82	=82	=82
*	*^	*
4.G (4.e	(4.cc	2.g	.
4.F 4.d)	4.bn)	.	.
*	*v	*v	*
=83	=83	=83
(8EL	(16ff#LL	f
.	16gg	.
8G	16ff#	.
.	16gg	.
8cJ	16ff#	.
.	16ggJJ	.
8FL	16gg#LL	.
.	16aa	.
8A	16gg#	.
.	16aa	.
8dJ	16bbn	.
.	16cccJJ	.
=84	=84	=84
*	*^	*
8GL	4.r	4.cc)	.
8c	.	.	.
8eJ	.	.	.
*	*v	*v	*
.	32eeq	.
*	*^	*
8GL	([4dd	4.bn	.
8d	.	.	.
8fJ	16ddLL]	.	.
.	16ccJJ)	.	.
*	*v	*v	*
=85	=85	=85
4c 4e)	(16ccLL	.
.	16ee	.
.	16gg	.
.	16ccc	.
8r	16bbn	.
.	16aaJJ	.
4G 4Bn 4f	16ggLL	.
.	16aa	.
.	16gg	.
.	16ff	.
8r	16ee	.
.	16ddJJ	.
=86	=86	=86
4c 4e	16ccLL	.
.	16ee	.
.	16dd	.
.	16cc	.
8r	16bn	.
.	16aJJ	.
4G 4Bn 4f	16gLL	.
.	16a	.
.	16g	.
.	16f	.
8r	16e	.
.	16dJJ	.
=87	=87	=87
*^	*	*
4.r	4C 4E	16cLL	.
.	.	16e	.
.	.	16d	.
.	.	16c	.
.	8r	16Bn	.
.	.	16AJJ)	.
16GLL	4GG 4BBn 4F	4.r	.
16A	.	.	.
16G	.	.	.
16F	.	.	.
16E	8r	.	.
16DJJ	.	.	.
=88	=88	=88	=88
8C'L	8CC'L	4.r	.
8E'	8EE'	.	.
8G'J	8GG'J	.	.
4.r	8C'L	8c'L	.
.	8E'	8e'	.
.	8G'J	8g'J	.
*v	*v	*	*
=89	=89	=89
4c	4cc	.
8r	8r	.
4C 4E 4G 4c	4g 4cc 4ee 4gg	.
8r	8r	.
=90	=90	=90
4C 4E 4G 4c	4cc 4ee 4gg 4ccc	.
8r	8r	.
4r	4r	.
8r	8r	.
=91:|!	=91:|!	=91:|!
*>B	*>B	*>B
4CC 4EE- 4GG 4C	16r	.
.	16ggLL	f
.	16ff#	.
.	16gg	.
8r	16ccc	.
.	16ggJJ	.
4r	16ffnLL	.
.	16ee-	.
.	16dd	.
.	16ee-	.
8r	16gg	.
.	16ee-JJ	.
=92	=92	=92
2.r	16ddLL	.
.	16cc	.
.	16bn	.
.	16cc	.
.	16ee-	.
.	16ccJJ	.
.	16aLL	.
.	16g	.
.	16f#	.
.	16g	.
.	16cc	.
.	16gJJ	.
=93	=93	=93
4r	16fnLL	.
.	16e-	.
.	16d	.
.	16e-	.
8r	16g	.
.	16e-JJ	.
8E-'L	16cLL	.
.	16cc	.
8D'	16Bn	.
.	16cc	.
8E-'J	16c	.
.	16ccJJ	.
=94	=94	=94
8F'L	16dLL	.
.	16cc	.
8E-'	16c	.
.	16cc	.
8F'J	16d	.
.	16ccJJ	.
8G'L	16enLL	.
.	16cc	.
8F'	16d	.
.	16cc	.
8G'J	16e	.
.	16ccJJ	.
=95	=95	=95
(4A-	16fLL	.
.	16cc	.
.	16f	.
.	16cc	.
8G)	16e-	.
.	16ccJJ	.
(4A-	16fLL	.
.	16cc	.
.	16f	.
.	16cc	.
8G)	16e-	.
.	16ccJJ	.
=96	=96	=96
(8F#L	(16dLL	.
.	16cc	.
8G	16e-	.
.	16cc	.
8F#J	16d	.
.	16ccJJ	.
8GL	16e-LL	.
.	16cc	.
8A-	16fn	.
.	16cc	.
8GJ	16e-	.
.	16ccJJ	.
=97	=97	=97
8F#L	16dLL	.
.	16cc	.
8G	16e-	.
.	16cc	.
8F#J	16d	.
.	16ccJJ	.
8GL	16e-LL	.
.	16cc	.
8A-	16fn	.
.	16cc	.
8GJ)	16e-	.
.	16ccJJ	.
=98	=98	=98
16r	4d)	.
(16F#LL	.	.
16An	.	.
16cJJ	.	.
16d)	16r	.
16r	(16f#	.
4.r	16cc)	.
.	(16dLL	.
.	16f#	.
.	16aJJ)	.
.	16cc	.
.	(16ff#	.
=99	=99	=99
2.r	16cccLL	.
.	16bb-	.
.	16aa	.
.	16gg	.
.	16ff#	.
.	16ggJJ	.
.	16ff#LL	.
.	16gg	.
.	16ff#	.
.	16ee-	.
.	16dd	.
.	16ccJJ)	.
=100	=100	=100
(8GL	(16bnLL	.
.	16ffn	.
8A-	16cc	.
.	16ff	.
8GJ	16b	.
.	16ffJJ	.
8A-L	16ccLL	.
.	16ff	.
8B-	16dd-	.
.	16ff	.
8A-J	16cc	.
.	16ffJJ	.
=101	=101	=101
8GL	16bnLL	.
.	16ff	.
8A-	16cc	.
.	16ff	.
8GJ	16b	.
.	16ffJJ	.
8A-L	16ccLL	.
.	16ff	.
8B-	16dd-	.
.	16ff	.
8A-J)	16cc	.
.	16ffJJ	.
=102	=102	=102
16r	8bn)	.
(16GLL	.	.
16Bn	8r	.
16dnJJ	.	.
16f)	16r	.
16r	(16b	.
4.r	16ff)	.
.	(16gLL	.
.	16bn	.
.	16ddJJ	.
.	16ff)	.
.	(16bbn	.
=103	=103	=103
2.r	16fffLL	.
.	16eee-	.
.	16ddd	.
.	16ccc	.
.	16bbn	.
.	16aa-JJ	.
.	16ggLL	.
.	16ff#	.
.	16gg	.
.	16aa-	.
.	16gg	.
.	16ffnJJ)	.
=104	=104	=104
(8cL	(16eenLL	.
.	16g	.
8Bn	16ff	.
.	16g	.
8cJ	16ee	.
.	16gJJ	.
8d-L	16ffLL	.
.	16g	.
8c	16ee	.
.	16g	.
8BJ	16ff	.
.	16gJJ	.
=105	=105	=105
8cL	16eeLL	.
.	16g	.
8Bn	16ff	.
.	16g	.
8cJ	16ee	.
.	16gJJ	.
8d-L	16ffLL	.
.	16g	.
8c	16ee	.
.	16g	.
8BJ)	16ff	.
.	16gJJ	.
=106	=106	=106
16r	8ee)	.
(16CLL	.	.
16E	8r	.
16GJJ	.	.
16B-)	16r	.
16r	(16e	.
4.r	16b-)	.
.	(16cLL	.
.	16e	.
.	16gJJ	.
.	16b-)	.
.	(16ee	.
=107	=107	=107
2.r	16bb-LL	.
.	16aa	.
.	16gg	.
.	16ff	.
.	16ee	.
.	16ddnJJ	.
.	16ccLL	.
.	16dd	.
.	16cc	.
.	16b-	.
.	16a	.
.	16gJJ)	.
=108	=108	=108
(8AL	16fLL	.
.	(16ee-	.
8B-	16g-	.
.	16ee-	.
8AJ	16f	.
.	16ee-JJ	.
8B-L	16g-LL	.
.	16ee-	.
8c-	16a-	.
.	16ee-	.
8B-J	16g-	.
.	16ee-JJ	.
=109	=109	=109
8AL	16fLL	.
.	16ee-	.
8B-	16g-	.
.	16ee-	.
8AJ	16f	.
.	16ee-JJ	.
8B-L	16g-LL	.
.	16ee-	.
8c-	16a-	.
.	16ee-	.
8B-J)	16g-	.
.	16ee-JJ)	.
=110	=110	=110
16r	8f	.
(16ALL	.	.
16cn	8r	.
16e-JJ	.	.
16f)	16r	.
16r	(16an	.
4.r	16ee-)	.
.	(16fLL	.
.	16a	.
.	16ccJJ	.
.	16ee-)	.
.	(16aa	.
=111	=111	=111
2.r	16eee-LL	.
.	16ddd	.
.	16ccc	.
.	16bb-	.
.	16aa	.
.	16ggJJ	.
.	16ffLL	.
.	16gg	.
.	16ff	.
.	16ee-	.
.	16dd	.
.	16ccJJ	.
=112	=112	=112
8B-L	8dd)	p
8d	8r	.
8fJ	(8dd	.
8AL	8cc)	.
8c	8r	.
8fJ	(8cc	.
=113	=113	=113
8GL	[4.ee-	.
8B-	.	.
8e-J	.	.
8F#L	4ee-]	.
8A	.	.
8dJ	8dd	.
=114	=114	=114
8GL	8ee-)	.
8B-	8r	.
8e-J	(8ee-	.
8FnL	8dd)	.
8A	8r	.
8dJ	(8dd	.
=115	=115	=115
8E-L	[4.gg	.
8G	.	.
8cJ	.	.
8DL	4gg]	.
8F	.	.
8B-J	8ff)	.
=116	=116	=116
8CL	(8ffL	.
8G	8eenJ	.
8B-J	4cc	.
8FL	.	.
8A	8ddL	.
8cJ	[8ee-J	.
=117	=117	=117
8BB-L	8ee-L]	.
8F	8ddJ	.
8B-J	4b-	.
8G-L	.	.
8B-	8ccL	.
8d-J	8dd-J	.
=118	=118	=118
8E-L	(8dd-L)	.
8G-	8ccJ	.
8B-J	4dd-	.
8EnL	.	.
8Gn	8ccL	.
8d-J	8b-J	.
=119	=119	=119
8FL	4.a	.
8A	.	.
8cJ	.	.
8FL	8cc)	.
8E-	8r	.
8CJ	8r	.
=120	=120	=120
4BB- 4B-	16ddnLL	f
.	16b-	.
.	16f	.
.	16b-	.
8r	16dd	.
.	16b-JJ	.
4AA 4A	16ccLL	.
.	16a	.
.	16f	.
.	16a	.
8r	16cc	.
.	16aJJ	.
=121	=121	=121
[4.GG [4.G	16ee-LL	.
.	16b-	.
.	16g	.
.	16b-	.
.	16ee-	.
.	16b-JJ	.
4GG] 4G]	16ee-LL	.
.	16b-	.
.	16ee-	.
.	16b-	.
8FF# 8F#	16dd	.
.	16aJJ	.
=122	=122	=122
4GG 4G	16ee-LL	.
.	16b-	.
.	16g	.
.	16b-	.
8r	16ee-	.
.	16b-JJ	.
4FFn 4Fn	16ddLL	.
.	16a	.
.	16f	.
.	16a	.
8r	16dd	.
.	16aJJ	.
=123	=123	=123
[4.EE- [4.E-	16ggLL	.
.	16b-	.
.	16g	.
.	16b-	.
.	16gg	.
.	16b-JJ	.
4EE-] 4E-]	16ggLL	.
.	16b-	.
.	16gg	.
.	16b-	.
8DD 8D	16ff	.
.	16b-JJ	.
=124	=124	=124
16CLL	8.r	.
16G	.	.
16B-JJ	.	.
8.r	16gLL	.
.	16b-	.
.	16eenJJ	.
16F#LL	8.r	.
16A	.	.
16cJJ	.	.
8.r	16aLL	.
.	16cc	.
.	16ee-JJ	.
=125	=125	=125
16GLL	8.r	.
16B-	.	.
16dJJ	.	.
8.r	16gLL	.
.	16b-	.
.	16ddJJ	.
16E-LL	8.r	.
16G	.	.
16cJJ	.	.
8.r	16e-LL	.
.	16g	.
.	16ccJJ	.
=126	=126	=126
16FFLL	8.r	.
16D	.	.
16FJJ	.	.
8.r	16dLL	.
.	16f	.
.	16b-JJ	.
16FFLL	8.r	.
16C	.	.
16FJJ	.	.
8.r	16e-LL	.
.	16f	.
.	16aJJ	.
=127	=127	=127
[4.BBB-	2.r	.
8BBB-L]	.	.
(8DD	.	.
8FFJ	.	.
=128	=128	=128
*^	*	*
8r	2.BB-)	4.r	.
8DL	.	.	.
8FJ	.	.	.
4.r	.	8B-L	p
.	.	8d	.
.	.	8fJ	.
*v	*v	*	*
=129	=129	=129
[2.AA [2.C (2.E-	8f#L	.
.	8a	.
.	8ccJ	.
.	8ee-L	.
.	8ff#	.
.	8aaJ	.
=130	=130	=130
2.AA] 2.C] 2.F#)	8cccL	.
.	8aa	.
.	8ff#J	.
.	8ee-L	.
.	8dd	.
.	8f#J	.
=131	=131	=131
[2.BB- [2.D [2.G	8aL	.
.	8g	.
.	8cc#J	.
.	8ddL	.
.	8ff#	.
.	8ggJ	.
=132	=132	=132
2.BB-] 2.D] 2.G]	8ccc#L	.
.	8ddd	.
.	8aaJ	.
.	8bb-L	.
.	8ff#	.
.	8ggJ	.
=133	=133	=133
4B- 4d-	8r	.
.	(8ffnL	.
8r	8eenJ)	.
4B- 4d-	8r	.
.	(8eeL	.
8r	8ddd-J)	.
=134	=134	=134
4B- 4c	8r	.
.	(8ddd-L	.
8r	8cccJ)	.
4B- 4c	8r	.
.	(8cccL	.
8r	8eeJ)	.
=135	=135	=135
[2.AA- [2.A-	8r	.
.	(8eeL	f
.	8ffJ	.
.	8cccL	.
.	8gg	.
.	8bb-J	.
=136	=136	=136
2.AA-] 2.A-]	8aa-L	.
.	8ee	.
.	8ggJ	.
.	8ffL	.
.	8ee-	.
.	8dd-J)	.
*clefG2	*	*
=137	=137	=137
*^	*	*
8r	2.dn	(4.cc	p
(8eL	.	.	.
8fJ	.	.	.
8a-L	.	4.bn	.
8e	.	.	.
8fJ	.	.	.
=138	=138	=138	=138
8a-L	2.d-	4.ff	.
8e	.	.	.
8fJ	.	.	.
8a-L	.	4.bn)	.
8g	.	.	.
8fJ)	.	.	.
*clefF4	*clefF4	*	*
*v	*v	*	*
=139	=139	=139
4C 4c	8r	.
.	8e 8g (8ccL	f
8r	8f 8bn 8ddnJ)	.
4C 4c	8r	.
.	8f 8b (8ddL	.
8r	8g 8b- 8eeJ)	.
=140	=140	=140
4C 4c	8r	.
.	8g 8b- (8eeL	.
8r	8a 8cc 8ffJ)	.
4C 4c	8r	.
.	8a 8cc (8ff#L	.
8r	8b- 8ee 8ggJ)	.
=141	=141	=141
4C 4c	8r	.
.	8b- 8ee (8ggL	.
8r	8cc 8ffn 8aaJ)	.
4C 4c	8r	.
.	8cc 8ff# (8aaL	.
8r	8ee 8gg 8bb-J)	.
=142	=142	=142
8CC'L	2.ee 2.gg ([2.bb-	.
8EE'	.	.
8GG'J	.	.
8C'L	.	.
8E'	.	.
8G'J	.	.
=143	=143	=143
8c	16bb-LL]	.
.	16ccc	.
8r	16ddd	.
.	16ccc	.
8r	16bb-	.
.	16aaJJ	.
4r	16ggLL	.
.	16aa	.
.	16bb-	.
.	16aa	.
8r	16gg	.
.	16ffJJ	.
=144	=144	=144
2.r	16eeLL	.
.	16ff	.
.	16gg	.
.	16ff	.
.	16ee	.
.	16ddJJ	.
.	16ccLL	.
.	16cc#	.
.	16dd	.
.	16ccn	.
.	16b-	.
.	16aJJ	.
=145	=145	=145
2.r	16gLL	.
.	16a	.
.	16b-	.
.	16a	.
.	16g	.
.	16fJJ	.
.	16eLL	.
.	16f	.
.	16g	.
.	16f	.
.	16e	.
.	16dJJ)	.
=146	=146	=146
16cLL	2.r	.
16c#	.	.
16d	.	.
16cn	.	.
16B-	.	.
16AJJ	.	.
16GLL	.	.
16A	.	.
16B-	.	.
16A	.	.
16G	.	.
16FJJ	.	.
=147	=147	=147
16ELL	2.r	.
16F	.	.
16G	.	.
16F	.	.
16E	.	.
16DJJ	.	.
16CLL	.	.
16D	.	.
16C	.	.
16BB-	.	.
16AA	.	.
16GGJJ	.	.
=148	=148	=148
4FF 4AA 4C 4F	16r	.
.	16cccLL	f
.	16bbn	.
.	16ccc	.
8r	16fff	.
.	16cccJJ	.
4r	16bb-LL	.
.	16aa	.
.	16gg#	.
.	16aa	.
8r	16ccc	.
.	16aaJJ	.
=149	=149	=149
2.r	16ggnLL	.
.	16ff	.
.	16ee	.
.	16ff	.
.	16aa	.
.	16ffJJ	.
.	16ddLL	.
.	16cc	.
.	16bn	.
.	16cc	.
.	16ff	.
.	16ccJJ	.
=150	=150	=150
4r	16b-LL	.
.	16a	.
.	16g#	.
.	16a	.
8r	16cc	.
.	16aJJ	.
8A'L	16fLL	.
.	16ff	.
8G'	16e	.
.	16ff	.
8A'J	16f	.
.	16ffJJ	.
=151	=151	=151
8B-'L	16gnLL	.
.	16ff	.
8A'	16f	.
.	16ff	.
8B-'J	16g	.
.	16ffJJ	.
8c'L	16aLL	.
.	16ff	.
8B-'	16g	.
.	16ff	.
8c'J	16a	.
.	16ffJJ	.
=152	=152	=152
(4d-	16b-LL	.
.	16ff	.
.	16b-	.
.	16ff	.
8c)	16a	.
.	16ffJJ	.
(4d-	16b-LL	.
.	16ff	.
.	16b-	.
.	16ff	.
8c)	16a	.
.	16ffJJ	.
=153	=153	=153
8BnL	16a-LL	.
.	16ff	.
8B	16a-	.
.	16ff	.
8BJ	16a-	.
.	16ffJJ	.
8c	8g 8ee	.
8r	8r	.
8r	8r	.
=154	=154	=154
4FF 4AA 4C 4F	16r	.
.	16cccLL	.
.	16bbn	.
.	16ccc	.
8r	16fff	.
.	16cccJJ	.
4r	16bb-LL	.
.	16aa	.
.	16gg#	.
.	16aa	.
8r	16ccc	.
.	16aaJJ	.
=155	=155	=155
2.r	16ggnLL	.
.	16ff	.
.	16ee	.
.	16ff	.
.	16aa	.
.	16ffJJ	.
.	16ddLL	.
.	16cc	.
.	16bn	.
.	16cc	.
.	16ff	.
.	16ccJJ	.
=156	=156	=156
4r	16b-LL	.
.	16a	.
.	16g#	.
.	16a	.
8r	16cc	.
.	16aJJ	.
8A'L	16fLL	.
.	16ff	.
8G'	16e	.
.	16ff	.
8A'J	16f	.
.	16ffJJ	.
=157	=157	=157
8B-'L	16gnLL	.
.	16ff	.
8A'	16f	.
.	16ff	.
8B-'J	16g	.
.	16ffJJ	.
8c'L	16aLL	.
.	16ff	.
8B-'	16g	.
.	16ff	.
8c'J	16a	.
.	16ffJJ	.
=158	=158	=158
(4d-	16b-LL	.
.	16ff	.
.	16b-	.
.	16ff	.
8c)	16a	.
.	16ffJJ	.
(4d-	16b-LL	.
.	16ff	.
.	16b-	.
.	16ff	.
8c)	16a	.
.	16ffJJ	.
=159	=159	=159
8Bn	16a-LL	.
.	16ffJJ	.
8r	8r	.
8r	8r	.
8B-	16gLL	.
.	16eeJJ	.
8r	8r	.
8r	8r	.
=160	=160	=160
8A	(16f#LL	.
.	16ee-JJ)	.
8r	8r	.
8r	8r	.
16BB-LL	8r	.
16B-JJ	.	.
8r	(16dLL	.
.	16g	.
8r	16b-	.
.	16ddJJ	.
=161	=161	=161
4.C 4.G (4.B-	16ccLL	.
.	16b-	.
.	16a	.
.	16g	.
.	16fn	.
.	16eJJ	.
8F 8A)	8fL)	.
8r	8c	p
8r	8cJ	.
=162	=162	=162
.	(32eq	.
8CL	[4.b-)	.
8B- 8c	.	.
8B- 8cJ	.	.
8B- 8cL	8b-L]	.
8B- 8c	8a'	.
8B- 8cJ	8g'J	.
=163	=163	=163
.	gq	.
8FL	4.f	.
8A 8c	.	.
8A 8cJ	.	.
8A 8cL	4.f	.
8A 8c	.	.
8A 8cJ	.	.
=164	=164	=164
.	32eq	.
8CL	[4.b-	.
8G 8c	.	.
8G 8cJ	.	.
8G 8cL	8b-L]	.
8G 8c	8a'	.
8G 8cJ	8g'J	.
=165	=165	=165
8FL	(4.bn	.
8A 8c	.	.
8A 8cJ	.	.
8A 8cL	8cc)	.
8A 8c	8r	.
8A 8cJ	8r	.
=166	=166	=166
.	32eq	.
8CL	[4.b-	.
8B- 8c	.	.
8B- 8cJ	.	.
8B- 8cL	8b-L]	.
8B- 8c	8a'	.
8B- 8cJ	8g'J	.
=167	=167	=167
8FL	4f	.
8A 8c	.	.
8A 8cJ	[8a	.
8A 8cL	4a]	.
8A 8c	.	.
8A 8cJ	[8cc	.
=168	=168	=168
8CL	4cc]	.
8G 8c	.	.
8G 8cJ	[8b-	.
8B- 8cL	4b-]	.
8B- 8c	.	.
8B- 8cJ	8g	.
=169	=169	=169
8F 8A 8c	8f	.
8r	8r	.
8r	8r	.
4.E- 4.G 4.c#	4.cc# 4.ccc#	.
=170	=170	=170
4D 4F# 4d	4.dd 4.ddd	.
8r	.	.
4r	4.dd 4.cccn	.
8r	.	.
=171	=171	=171
4.D 4.d	4.dd 4.bb-	.
4.Cn 4.cn	4.dd 4.aa	.
=172	=172	=172
4.BB- 4.B-	4.dd 4.gg	.
4.AA 4.A	4.cc 4.dd 4.ff#	.
=173	=173	=173
(8GL	(16ggLL	.
.	16dd	.
8B-	16b-	.
.	16dd	.
8dJ	16gg	.
.	16ddJJ	.
8F#L	16aaLL	.
.	16dd	.
8A	16cc	.
.	16dd	.
8dJ	16aa	.
.	16ddJJ	.
=174	=174	=174
8GL	16bb-LL	.
.	16gg	.
8B-	16dd	.
.	16gg	.
8dJ	16bb-	.
.	16ggJJ	.
8FnL	16bbnLL	.
.	16gg	.
8Bn	16dd	.
.	16gg	.
8dJ	16bb	.
.	16ggJJ)	.
=175	=175	=175
4E)	(4ccc	.
8r	16dddLL	.
.	16cccJJ)	.
4r	(4bb-	.
8r	16cccLL	.
.	16bb-JJ)	.
*clefG2	*	*
=176	=176	=176
4.cc	(4aa	.
.	16bb-LL	.
.	16aaJJ)	.
4.b- 4.cc	(4gg	.
.	16aaLL	.
.	16ggJJ)	.
=177	=177	=177
4.a 4.cc	(4ff	.
.	16ggLL	.
.	16ffJJ)	.
4.g 4.b- 4.cc	(4ee	.
.	16ffLL	.
.	16eeJJ)	.
=178	=178	=178
(8fL	(16ggLL	.
.	16ff	.
8a	16ee	.
.	16ff	.
8ccJ	16ee	.
.	16ffJJ	.
8eL	16aaLL	.
.	16gg	.
8g	16ff#	.
.	16gg	.
8ccJ)	16ff#	.
.	16ggJJ	.
=179	=179	=179
8f 8a 8cc	16aaLL	.
.	16gg	.
8r	16ffn	.
.	16gg	.
8r	16aa	.
.	16bb-JJ	.
4r	16cccLL	.
.	16bb-	.
.	16aa	.
.	16bb-	.
8r	16ccc	.
.	16ccc#JJ)	.
*clefF4	*	*
=180	=180	=180
8BB-'L	(16dddLL	.
.	16dd	.
8B-'J	16ddd	.
.	16cccn	.
8r	16bb-	.
.	16aaJJ	.
8E'L	16ggLL	.
.	16ff#	.
8e'J	16gg	.
.	16aa	.
8r	16bb-	.
.	16bbnJJ	.
=181	=181	=181
8AAL	16cccLL	.
.	16cc	.
8A'J	16ccc	.
.	16bb-	.
8r	16aa	.
.	16ggJJ	.
8D'L	16ffnLL	.
.	16ee	.
8d'J	16ff	.
.	16gg	.
8r	16aa-	.
.	16aanJJ	.
=182	=182	=182
8GGL	16bb-LL	.
.	16ccc	.
8AA	16bb-	.
.	16aa	.
8BB-J	16gg	.
.	16ffJJ	.
8CL	16eeLL	.
.	16ff	.
8D	16ee	.
.	16dd	.
8EJ	16cc	.
.	16b-JJ	.
=183	=183	=183
8F	16aLL	.
.	16cc	.
8r	16ff	.
.	16gg	.
8AA	16ff	.
.	16eeJJ	.
8BB-	16ddLL	.
.	16cc	.
8r	16b-	.
.	16a	.
8BBn	16g	.
.	16fJJ	.
=184	=184	=184
8C	16eLL	.
.	16f	.
8r	16g	.
.	16f	.
8r	16e	.
.	16dJJ)	.
16r	16c	.
(16dLL	16r	.
16c	8r	.
16B-	.	.
16A	8r	.
16GJJ)	.	.
=185	=185	=185
8FL	[4.a-	p
8A-	.	.
8cJ	.	.
8FL	8a-L]	.
8A-	8g'	.
8cJ	8f'J	.
=186	=186	=186
8EL	(4bn	.
8G	.	.
8cJ	8cc)	.
8EL	4g	.
8G	.	.
8cJ	8r	.
=187	=187	=187
8EL	[4.dd-	.
8G	.	.
8B-J	.	.
8EL	8dd-L]	.
8G	8cc'	.
8cJ	8b-'J	.
=188	=188	=188
8FL	(4a-	.
8A-	.	.
.	16gqLL	.
.	16a-qJJ	.
8cJ	8b-	.
8FL	4cc)	.
8A-	.	.
8cJ	8r	.
=189	=189	=189
8A-L	(4.ff	.
8c	.	.
8fJ	.	.
8GL	4ee-	.
8B-	.	.
8e-J	8ff	.
=190	=190	=190
8FL	4ee-	.
8A-	.	.
8d-J	8dd-	.
8E-L	4.cc)	.
8G	.	.
8cJ	.	.
=191	=191	=191
8D-L	(4b-	.
8F	.	.
8B-J	8a-	.
8D-L	4g	.
8F	.	.
8BnJ	8f	.
=192	=192	=192
8CL	4.a-	.
8F	.	.
8cJ	.	.
8CL	8g)	.
8En	8r	.
8cJ	8r	.
=193	=193	=193
8FL	[4.a- [4.aa-	.
8A-	.	.
8cJ	.	.
8FL	8a-] 8aa-L]	.
8A-	8g' 8gg'	.
8cJ	8f' 8ff'J	.
=194	=194	=194
8EL	4bn (4bbn	.
8G	.	.
8cJ	8cc 8ccc)	.
8EL	4g 4gg	.
8G	.	.
8cJ	8r	.
=195	=195	=195
8EL	[4.dd- [4.ddd-	.
8G	.	.
8B-J	.	.
8EL	8dd-] 8ddd-L]	.
8G	8cc' 8ccc'	.
8cJ	8b-' 8bb-'J	.
=196	=196	=196
8E-L	4an (4aan	.
8G-	.	.
8AnJ	8cc 8ccc)	.
8DnL	4b- 4bb-	.
8F	.	.
8B-J	8r	.
=197	=197	=197
8D-L	4.bn 4.bbn	f
8F	.	.
8A-J	.	.
8CL	4.cc 4.ccc	.
8F	.	.
8A-J	.	.
=198	=198	=198
8BB-L	4.dd- (4.ddd-	.
8En	.	.
8GJ	.	.
8AA-L	8cc 8ccc)	.
8C	8r	.
8FJ	16r	.
.	16fff	.
=199	=199	=199
*	*^	*
8CL	4.ff	4.cc	p
8F	.	.	.
8A-J	.	.	.
*	*v	*v	*
.	16aa-q	.
*	*^	*
8CL	4.gg	4.ee	.
8G	.	.	.
8B-J	.	.	.
*	*v	*v	*
=200	=200	=200
4F 4An	16ffLL	f
.	(16cc	.
.	16bn	.
.	16cc	.
8r	16ddn	.
.	16ccJJ	.
8G'L	16b-LL	.
.	16cc	.
8E'	16b-	.
.	16cc	.
8C'J	16b-	.
.	16ccJJ	.
=201	=201	=201
4F	16anLL	.
.	16cc	.
.	16bn	.
.	16cc	.
8r	16ff	.
.	16ccJJ	.
8G'L	16b-LL	.
.	16cc	.
8E'	16b-	.
.	16cc	.
8C'J	16b-	.
.	16ccJJ	.
=202	=202	=202
4F	16a	.
.	(16cccLL)	.
.	16bbn	.
.	16ccc	.
8r	16ddd	.
.	16cccJJ	.
*clefG2	*	*
8g'L	16bb-LL	.
.	16ccc	.
8e'	16bb-	.
.	16ccc	.
8c'J	16bb-	.
.	16cccJJ	.
=203	=203	=203
4f	16aaLL	.
.	16ccc	.
.	16bbn	.
.	16ccc	.
8r	16fff	.
.	16cccJJ	.
8g'L	16bb-LL	.
.	16ccc	.
8e'	16bb-	.
.	16ccc	.
8c'J	16bb-	.
.	16cccJJ	.
=204	=204	=204
4f	16aaLL	.
.	16ccc	.
.	16fff	.
.	16aa	.
8r	16gg	.
.	16eeeJJ	.
4r	16ffLL	.
.	16ddd	.
.	16ee	.
.	16ccc	.
8r	16dd	.
.	16bb-JJ	.
=205	=205	=205
2.r	16ccLL	.
.	16aa	.
.	16b-	.
.	16gg	.
.	16a	.
.	16ffJJ	.
.	16gLL	.
.	16ee	.
.	16f	.
.	16dd	.
.	16e	.
.	16ccJJ)	.
*clefF4	*	*
=206	=206	=206
8r	4.d 4.bn	.
(8DL	.	.
8FJ	.	.
8A-L	4.d- 4.b-	.
8G	.	.
[8FJ	.	.
=207	=207	=207
8FL]	4.dd- 4.bb-	.
8E	.	.
8GJ	.	.
8d-L	4.g 4.ee	.
8c	.	.
8B-J	.	.
=208	=208	=208
8An)	8r	.
8r	8ccc'L	p
8r	8ccc'J	.
8B-	8r	.
8r	8dddnL	.
8r	8ddd'J	.
*clefG2	*	*
=209	=209	=209
*^	*^	*
(4.a	2.c	4.ff	4.cc	.
*	*	*v	*v	*
.	.	16aaq	.
*	*	*^	*
4.b-)	.	4.gg	4.ee	.
*	*	*v	*v	*
=210	=210	=210	=210
4a	4f	16ffLL	f
.	.	(16cc	.
.	.	16bn	.
.	.	16cc	.
8r	8r	16ddn	.
.	.	16ccJJ	.
*clefF4	*clefF4	*	*
8G'L	4.r	16b-LL	.
.	.	16cc	.
8E'	.	16b-	.
.	.	16cc	.
8C'J	.	16b-	.
.	.	16ccJJ	.
*v	*v	*	*
=211	=211	=211
4F	16aLL	.
.	16cc	.
.	16bn	.
.	16cc	.
8r	16ff	.
.	16ccJJ	.
8G'L	16b-LL	.
.	16cc	.
8E'	16b-	.
.	16cc	.
8C'J	16b-	.
.	16ccJJ	.
=212	=212	=212
4F	16a)	.
.	(16cccLL	.
.	16bbn	.
.	16ccc	.
8r	16ddd	.
.	16cccJJ	.
*clefG2	*	*
8g'L	16bb-LL	.
.	16ccc	.
8e'	16bb-	.
.	16ccc	.
8c'J	16bb-	.
.	16cccJJ	.
=213	=213	=213
4f	16aaLL	.
.	16ccc	.
.	16bbn	.
.	16ccc	.
8r	16fff	.
.	16cccJJ	.
8g'L	16bb-LL	.
.	16ccc	.
8e'	16bb-	.
.	16ccc	.
8c'J	16bb-	.
.	16cccJJ	.
=214	=214	=214
4f	16aaLL	.
.	16ccc	.
.	16fff	.
.	16aa	.
8r	16gg	.
.	16eeeJJ	.
4r	16ffLL	.
.	16ddd	.
.	16ee	.
.	16ccc	.
8r	16dd	.
.	16bb-JJ	.
=215	=215	=215
2.r	16ccLL	.
.	16aa	.
.	16b-	.
.	16gg	.
.	16a	.
.	16ffJJ	.
.	16gLL	.
.	16ee	.
.	16f	.
.	16dd	.
.	16e	.
.	16ccJJ)	.
*clefF4	*	*
=216	=216	=216
8r	4.d 4.bn	.
(8DL	.	.
8FJ	.	.
8A-L	4.d- 4.b-	.
8G	.	.
[8FJ	.	.
=217	=217	=217
8FL]	4.dd- 4.bb-	.
8E	.	.
8GJ	.	.
8d-L	4.g 4.ee	.
8c	.	.
8B-J	.	.
=218	=218	=218
8An)	8r	.
8r	8ccc'L	p
8r	8ccc'J	.
8B-	8r	.
8r	8ddd'L	.
8r	8ddd'J	.
*clefG2	*	*
=219	=219	=219
*	*^	*
(4.c (4.a	(4.ff	2.cc	.
4.B-) 4.g)	4.ee)	.	.
*	*v	*v	*
=220	=220	=220
(8AL	(16bbnLL	f
.	16ccc	.
8c	16bb	.
.	16ccc	.
8fJ	16bb	.
.	16cccJJ	.
8B-L	16ccc#LL	.
.	16ddd	.
8d	16ccc#	.
.	16ddd	.
8gJ	16eee)	.
.	16fffJJ	.
=221	=221	=221
*	*^	*
8cL	4.ff	4.cc	p
8f	.	.	.
8aJ	.	.	.
*	*v	*v	*
.	(32aaq	.
*	*^	*
8cL	([4gg)	4.ee	.
8g	.	.	.
8b-J)	16ggLL]	.	.
.	16ffJJ)	.	.
*	*v	*v	*
=222	=222	=222
4f 4a	16ffLL	f
.	16aa	.
.	16ccc	.
.	(16fff	.
8r	16eee	.
.	16dddJJ	.
4c 4e 4b-	16cccLL	.
.	16ddd	.
.	16ccc	.
.	16bb-	.
8r	16aa	.
.	16ggJJ	.
=223	=223	=223
4f 4a	16ffLL	.
.	16aa	.
.	16gg	.
.	16ff	.
8r	16ee	.
.	16ddJJ	.
4c 4e 4b-	16ccLL	.
.	16dd	.
.	16cc	.
.	16b-	.
8r	16a	.
.	16gJJ	.
*clefF4	*	*
=224	=224	=224
4F 4A	16fLL	.
.	16a	.
.	16g	.
.	16f	.
8r	16e	.
.	16dJJ	.
4C 4E 4B-	16cLL	.
.	16d	.
.	16c	.
.	16B-	.
8r	16A	.
.	16GJJ)	.
=225	=225	=225
*^	*	*
8F'L	8FFL	4.r	.
8A'	8AA'	.	.
8cJ	8C'J	.	.
4.r	8F'L	8f'L	.
.	8A'	8a'	.
.	8c'J	8cc'J	.
*v	*v	*	*
=226	=226	=226
4f	4ff	.
8r	8r	.
4F 4f	4cc 4aa 4ccc	.
8r	8r	.
=227	=227	=227
4AA 4A	4ff 4ccc 4eee-	.
8r	8r	.
4r	4r	.
8r	8r	.
=228	=228	=228
4BB- 4B-	4ff 4bb- 4ddd	.
8r	8r	.
4r	4r	.
8r	8r	.
=229	=229	=229
4BBn 4Bn	4ff 4aa- 4ddd 4fff	.
8r	8r	.
4r	4r	.
8r	8r	.
=230	=230	=230
*	*^	*
[2.C 2.An	2.f	2.c	p
=231	=231	=231	=231
2.C] 2.B-	(8a	2.c 2.e	.
.	[4g)	.	.
.	(4g]	.	.
.	8f)	.	.
*	*v	*v	*
=232	=232	=232
8F 8A	8c 8f	.
8r	8r	.
8AA'	8A'	f
8BB-'L	8B-'L	.
8G'	8g'	.
8BBn'J	8Bn'J	.
=233	=233	=233
8C'L	8c'L	.
8A'	8a'	.
8C#'J	8c#'J	.
8D'L	8d'L	.
8B-'	8b-'	.
8E'J	8e'J	.
*clefG2	*	*
=234	=234	=234
4r	([4.bb-	.
8r	.	.
(4.B- 4.c 4.e 4.g	8bb-L]	.
.	16aaL	.
.	16gg	.
.	16ff	.
.	16eeJJ	.
=235	=235	=235
8A) 8c 8f	8ff'L)	.
8r	8gg'	.
8r	8aa'J	.
(4c	(4a 4cc	p
8c#)	8g) 8b-	.
=236	=236	=236
[4.d	(4.g 4.b-	.
8d]	8f) 8a	.
8r	8r	.
8r	8r	.
*clefF4	*	*
=237	=237	=237
8r	8r	.
8r	8r	.
8AA'	8A'	f
8BB-'L	8B-'L	.
8G'	8g'	.
8BBn'J	8Bn'J	.
=238	=238	=238
8C'L	8c'L	.
8A'	8a'	.
8C#'J	8c#'J	.
8D'L	8d'L	.
8B-'	8b-'	.
8E'J	8e'J	.
*clefG2	*	*
=239	=239	=239
4r	([4.bb-	.
8r	.	.
(4.B- 4.c 4.e 4.g	8bb-L]	.
.	16aaL	.
.	16gg	.
.	16ff	.
.	16eeJJ	.
=240	=240	=240
8A) 8c 8f	32ffLLL	.
.	32ggJ	.
.	16aaJJ)	.
8r	8r	.
8r	8r	.
8B- 8d 8f	(32ddLLL	.
.	32eeJ	.
.	16ffJJ)	.
8r	8r	.
8r	8r	.
*clefF4	*	*
=241	=241	=241
*^	*^	*
(4.A	2.C	4.f	2.c	p
.	.	16aq	.	.
4.B-)	.	4e (4g	.	.
.	.	8f)	.	.
=242	=242	=242	=242	=242
(8FL	4.F	(4f	4.f	.
8A	.	.	.	.
8cJ)	.	8a	.	.
(8FL	4.F	8ccL	4.e	.
8G	.	8b-	.	.
8B-J)	.	8gJ)	.	.
=243	=243	=243	=243	=243
8FL	(4.F	(8fL	4.f	.
8A	.	8c	.	.
8cJ)	.	8aJ	.	.
(8FL	4.F	8ccL	4.e	.
8G	.	8b-	.	.
8B-J)	.	8gJ)	.	.
*	*	*v	*v	*
=244	=244	=244	=244
8FL	(4.F	(8fL	pp
8A	.	8c	.
8cJ)	.	8aJ	.
(8FL	4.F	8fL	.
8A	.	8c	.
8cJ)	.	8aJ)	.
*v	*v	*	*
=245	=245	=245
[4.FF [4.F	(4.B- 4.g	.
8FF] 8F]	8A) 8f	.
8r	8r	.
8r	8r	.
==	==	==
*-	*-	*-
!!!RDF**kern: < = below
!!!RDF**kern: > = above
!!!SMS: Alte Mozart-Ausgabe, Band 20, Breitkopf &amp; H&auml;rtel 1877-1883.
!!!ONB: Stich und Druck von Breitkopf &amp; H&auml;rtel in Leipzig
!!!ONB: Ausgegeben 1878
!!!ENC: Craig Stuart Sapp
!!!END: 2009/10/15/
!!!EEV: 2017/01/22/ to measure 31
!!!title: @{OTL}, K 332 (300k), @{OMV}
!!!hum2abc: --no-tempo -s 0.65 --spacing 2.0 -p "%gracespace  0 6.0 12.0"
